%
(99)
(Automatic test)
(T1 D=12.7 CR=0 - ZMIN=-29.21 - flat end mill)
(T2 D=5.08 CR=2.54 - ZMIN=-31.75 - ball end mill)
(T3 D=50.8 CR=0 - ZMIN=0 - face mill)
G90
G17
G21
G28 G91 Z0
G90

(Face1)
T3 M6
S5000 M3
G17 G90
G54
M7
G0 X-160.02 Y62.941
Z15.24
G0 Z5.08
G18 G2 X-154.94 Z0 I5.08 K0 F1016
G1 X-127
X127
G17 G2 Y24.765 I0 J-19.088
G1 X-127
G3 Y-13.411 I0 J-19.088
G1 X127
G2 Y-51.587 I0 J-19.088
G1 X-127
G18 G3 X-132.08 Z5.08 I0 K5.08
G0 Z15.24
G17
M5
G28 G91 Z0
G90

(Adaptive1)
M9
T1 M6
S5000 M3
G17 G90
G54
M7
G0 X35.544 Y-6.187
Z20.32
G0 Z10.16
Z3.81
G1 Z2.54 F508
G3 X36.072 Y5.865 Z1.878 I0.264 J6.026
X35.544 Y-6.187 Z1.216 I-0.264 J-6.026
X36.072 Y5.865 Z0.555 I0.264 J6.026
X35.544 Y-6.187 Z-0.107 I-0.264 J-6.026
X36.072 Y5.865 Z-0.769 I0.264 J6.026
X35.544 Y-6.187 Z-1.431 I-0.264 J-6.026
X36.072 Y5.865 Z-2.093 I0.264 J6.026
X35.544 Y-6.187 Z-2.754 I-0.264 J-6.026
X36.072 Y5.865 Z-3.416 I0.264 J6.026
X35.544 Y-6.187 Z-4.078 I-0.264 J-6.026
X36.072 Y5.865 Z-4.74 I0.264 J6.026
X29.776 Y-0.161 Z-5.08 I-0.264 J-6.026
X41.84 I6.032 J0
X29.776 I-6.032 J0
G1 X29.76 Y-1.514 F1016
X29.752 Y-1.598
X29.742 Y-1.75
X29.743 Y-1.903
X29.751 Y-2.055
X29.767 Y-2.207
X29.79 Y-2.357
X29.819 Y-2.507
X29.854 Y-2.655
X29.895 Y-2.802
X29.94 Y-2.947
X29.991 Y-3.091
X30.047 Y-3.234
X30.109 Y-3.379
X30.177 Y-3.526
X30.253 Y-3.674
X30.334 Y-3.823
X30.422 Y-3.973
X30.517 Y-4.122
X30.619 Y-4.271
X30.727 Y-4.418
X30.841 Y-4.565
X30.961 Y-4.709
X31.088 Y-4.852
X31.221 Y-4.991
X31.36 Y-5.128
X31.505 Y-5.262
X31.655 Y-5.392
X31.81 Y-5.518
X31.971 Y-5.64
X32.137 Y-5.758
X32.308 Y-5.87

!!! BLOCKS SKIPPED HERE !!!
!!! PROGRAM IS ONLY FOR REVIEW !!!

M5
G28 G91 Z0
G90

(Contour1)
M9
T2 M6
S5000 M3
G17 G90
G54
M7
G0 X89.748 Y1.455
Z15.24
G0 Z0.758
G1 Z-0.508 F508
X89.74 Z-0.596
X89.717 Y1.454 Z-0.682
X89.68 Z-0.762
X89.629 Y1.453 Z-0.835
X89.566 Y1.452 Z-0.897
X89.494 Y1.45 Z-0.948
X89.414 Y1.449 Z-0.985
X89.328 Y1.447 Z-1.008
X89.24 Y1.445 Z-1.016
G3 X88.742 Y0.928 I0.009 J-0.507
G1 X88.748 Y0.569 F1016
Y0.406
Y-0.406
Y-0.569
X88.73 Y-1.543
X88.726 Y-1.706
X88.69 Y-2.68
X88.682 Y-2.843
X88.628 Y-3.817
X88.617 Y-3.98
X88.544 Y-4.954
X88.53 Y-5.117
X88.454 Y-5.929
X88.438 Y-6.091
X88.329 Y-7.066
X88.31 Y-7.228
X88.183 Y-8.203
X88.16 Y-8.365
X88.014 Y-9.34
X87.987 Y-9.502
X87.85 Y-10.315
X87.822 Y-10.477
X87.638 Y-11.452
X87.607 Y-11.614
X87.405 Y-12.589
X87.369 Y-12.751
X87.184 Y-13.563
X87.147 Y-13.726
X86.907 Y-14.7
X86.865 Y-14.863
X86.606 Y-15.837
X86.56 Y-16
X86.306 Y-16.887
X86.28 Y-16.974
X85.981 Y-17.949
X85.928 Y-18.111
X85.656 Y-18.944

!!! BLOCKS SKIPPED HERE !!!
!!! PROGRAM IS ONLY FOR REVIEW !!!

G17
M5
G28 G91 Z0
G90

(Horizontal1)
M9
T1 M6
S5000 M3
G17 G90
G54
M7
G0 X36.263 Y-7.177
Z15.24
G0 Z-26.891
G1 X36.265 Y-7.178 Z-26.96 F508
X36.269 Y-7.182 Z-27.03
X36.276 Y-7.188 Z-27.099
X36.287 Y-7.197 Z-27.167
X36.3 Y-7.208 Z-27.235
X36.316 Y-7.221 Z-27.301
X36.334 Y-7.236 Z-27.367
X36.356 Y-7.254 Z-27.43
X36.38 Y-7.274 Z-27.493
X36.407 Y-7.295 Z-27.553
X36.437 Y-7.319 Z-27.611
X36.47 Y-7.344 Z-27.668
X36.505 Y-7.371 Z-27.722
X36.542 Y-7.399 Z-27.773
X36.582 Y-7.429 Z-27.822
X36.624 Y-7.46 Z-27.868
X36.669 Y-7.492 Z-27.911
X36.715 Y-7.524 Z-27.951
X36.764 Y-7.558 Z-27.987
X36.815 Y-7.592 Z-28.021
X36.867 Y-7.627 Z-28.051
X36.922 Y-7.661 Z-28.078
X36.977 Y-7.696 Z-28.101
X37.034 Y-7.731 Z-28.12
X37.092 Y-7.766 Z-28.136
X37.152 Y-7.801 Z-28.148
X37.212 Y-7.835 Z-28.156
X37.273 Y-7.869 Z-28.16
G3 X43.045 Y2.727 Z-28.822 I2.886 J5.298
X34.281 Y-1.214 Z-29.21 I-2.886 J-5.298
G1 X33.764 Y-3.454 F1016
G3 X36.319 Y-4.526 I1.37 J-0.316
X37.428 Y-1.892 I-7.161 J4.566
X37.582 Y0.963 I-7.968 J1.862
X34.82 Y1.108 I-1.394 J-0.171
G1 X34.281 Y-1.214
G2 X29.308 Y-5.902 I-6.002 J1.385
G3 X24.336 Y-10.589 I1.03 J-6.073
G1 X23.926 Y-12.364
G3 X26.826 Y-16.009 I2.9 J-0.669
X43.837 Y-3.744 I0 J17.929
X34.589 Y15.079 I-14.175 J4.719
X29.631 Y12.346 I-1.254 J-3.589
G1 X24.336 Y-10.589
G2 X19.555 Y-17.037 I-9.785 J2.259
G3 X21.737 Y-24.762 I2.062 J-3.588
X30.814 Y-24.303 I-6.021 J208.881
X44.82 Y-18.634 I-1.777 J24.527

!!! BLOCKS SKIPPED HERE !!!
!!! PROGRAM IS ONLY FOR REVIEW !!!

M9
G28 G91 Z0
G90
G28 G91 X0 Y0
G90
M30
%
