%
O0099 (AUTOMATIC TEST)
(T1 D=10. CR=2.5 - BULLNOSE END MILL)
(T2 D=5.79 CR=0. TAPER=118DEG - DRILL)
(T3 D=6. CR=3. - BALL END MILL)
(T4 D=10. CR=0. - FLAT END MILL)
N10 G90 G94 G17 G49 G40 G80
N15 G21
N20 G28 G91 Z0.
N25 G90

(POCKET 0DEG)
N30 T1 M06
N35 T3
N40 S5000 M03
N45 G17 G90 G94
N50 G54
N55 G68.2 X0. Y0. Z0. I0. J0. K0.
N60 G53.1
N65 M08
N70 G00 X1.131 Y1.382
N75 G43 Z116. H01
N80 G00 Z107.249
N85 G01 X1.121 Y1.367 Z107.059 F333.
N90 X1.09 Y1.322 Z106.875
N95 X1.042 Y1.248 Z106.705
N100 X0.982 Y1.145 Z106.555
N105 X0.916 Y1.015 Z106.43
N110 X0.85 Y0.862 Z106.336
N115 X0.79 Y0.69 Z106.275
N120 X0.742 Y0.506 Z106.25
N125 G03 X5.383 Y-0.507 Z105.989 I2.32 J-0.506
N130 X0.742 Y0.506 Z105.729 I-2.32 J0.506
N135 X5.383 Y-0.507 Z105.468 I2.32 J-0.506
N140 X0.742 Y0.506 Z105.208 I-2.32 J0.506
N145 X5.383 Y-0.507 Z104.947 I2.32 J-0.506
N150 X0.742 Y0.506 Z104.687 I-2.32 J0.506
N155 X5.383 Y-0.507 Z104.426 I2.32 J-0.506
N160 X0.742 Y0.506 Z104.166 I-2.32 J0.506
N165 X5.383 Y-0.507 Z103.905 I2.32 J-0.506
N170 X0.742 Y0.506 Z103.644 I-2.32 J0.506
N175 X5.383 Y-0.507 Z103.384 I2.32 J-0.506
N180 X0.742 Y0.506 Z103.123 I-2.32 J0.506
N185 X5.383 Y-0.507 Z102.863 I2.32 J-0.506
N190 X0.742 Y0.506 Z102.602 I-2.32 J0.506
N195 X5.383 Y-0.507 Z102.342 I2.32 J-0.506
N200 X0.742 Y0.506 Z102.081 I-2.32 J0.506
N205 X5.383 Y-0.507 Z101.821 I2.32 J-0.506
N210 X0.742 Y0.506 Z101.56 I-2.32 J0.506
N215 X5.383 Y-0.507 Z101.299 I2.32 J-0.506
N220 X0.742 Y0.506 Z101.039 I-2.32 J0.506
N225 X5.383 Y-0.507 Z100.778 I2.32 J-0.506
N230 X3.317 Y2.361 Z100.639 I-2.32 J0.506
N235 X0.688 Y0. Z100.5 I-0.255 J-2.361
N240 X4.31 I1.811 F1000.
N245 X-4.312 I-4.311
N250 X9.31 I6.811
N255 X-9.312 I-9.311
N260 X14.31 I11.811
N265 X-14.312 I-14.311
N270 X19.31 I16.811
N275 X-19.312 I-19.311
N280 X24.31 I21.811
N285 X-24.312 I-24.311
N290 X29.31 I26.811
N295 X-29.312 I-29.311
N300 X34.31 I31.811
N305 X-34.312 I-34.311
N310 X39.31 I36.811
N315 X-39.312 I-39.311
N320 X44.31 I41.811

(!!! BLOCKS SKIPPED HERE !!!)
(!!! PROGRAM IS ONLY FOR REVIEW !!!)


(HORIZONTAL 0DEG)
N57025 G00 X64.362 Y-26.69
N57030 Z116.
N57035 Z102.049
N57040 G01 X64.36 Y-26.691 Z101.988 F333.
N57045 X64.356 Y-26.695 Z101.927
N57050 X64.348 Y-26.7 Z101.866
N57055 X64.338 Y-26.709 Z101.806
N57060 X64.325 Y-26.719 Z101.747
N57065 X64.309 Y-26.732 Z101.689
N57070 X64.291 Y-26.747 Z101.632
N57075 X64.27 Y-26.765 Z101.577
N57080 X64.247 Y-26.785 Z101.524
N57085 X64.222 Y-26.808 Z101.473
N57090 X64.195 Y-26.833 Z101.424
N57095 X64.166 Y-26.86 Z101.377
N57100 X64.136 Y-26.89 Z101.333
N57105 X64.104 Y-26.923 Z101.291
N57110 X64.071 Y-26.958 Z101.253
N57115 X64.038 Y-26.995 Z101.217
N57120 X64.004 Y-27.034 Z101.185
N57125 X63.97 Y-27.076 Z101.156
N57130 X63.935 Y-27.12 Z101.13
N57135 X63.901 Y-27.166 Z101.107
N57140 X63.867 Y-27.214 Z101.089
N57145 X63.834 Y-27.263 Z101.073
N57150 X63.802 Y-27.314 Z101.062
N57155 X63.77 Y-27.366 Z101.054
N57160 X63.74 Y-27.419 Z101.05
N57165 G03 X67.902 Y-29.708 Z100.789 I2.081 J-1.144
N57170 X63.74 Y-27.419 Z100.529 I-2.081 J1.144
N57175 X67.902 Y-29.708 Z100.268 I2.081 J-1.144
N57180 X66.867 Y-26.431 Z100.134 I-2.081 J1.144
N57185 X63.642 Y-27.62 Z100. I-1.045 J-2.133
N57190 G02 X60.071 Y-34.681 I-61.259 J26.542 F1000.
N57195 X54.713 Y-42.656 I-64.755 J37.72
N57200 G03 X55.404 Y-43.444 I0.424 J-0.326
N57205 G01 X56.895 Y-42.583
N57210 G03 X57.2 Y-42.279 I-0.416 J0.721
N57215 G01 X65.214 Y-28.397
N57220 G03 X65.326 Y-27.981 I-0.721 J0.416
N57225 G01 Y-26.252
N57230 G03 X64.297 Y-26.053 I-0.534
N57235 G02 X63.642 Y-27.62 I-61.914 J24.975
N57240 G01 X63.617 Y-27.677 Z100.002
N57245 X63.592 Y-27.734 Z100.008
N57250 X63.567 Y-27.791 Z100.018
N57255 X63.543 Y-27.848 Z100.031
N57260 X63.518 Y-27.903 Z100.049
N57265 X63.495 Y-27.957 Z100.07
N57270 X63.471 Y-28.01 Z100.095

!!! BLOCKS SKIPPED HERE !!!
!!! PROGRAM IS ONLY FOR REVIEW !!!

N66175 G28 G91 Z0.
N66180 G90

(HORIZONTAL 45DEG)
N66185 G69
N66190 G68.2 X0. Y0. Z0. I90. J45. K-90.
N66195 G53.1
N66200 G49
N66205 G00 X-0.22 Y0.57
N66210 G43 Z157.836 H01
N66215 G00 Z122.049
N66220 G01 X-0.222 Y0.571 Z121.988 F333.
N66225 X-0.225 Y0.576 Z121.927
N66230 X-0.231 Y0.583 Z121.866
N66235 X-0.24 Y0.593 Z121.806
N66240 X-0.25 Y0.606 Z121.747
N66245 X-0.264 Y0.621 Z121.689
N66250 X-0.279 Y0.639 Z121.632
N66255 X-0.297 Y0.66 Z121.577
N66260 X-0.318 Y0.682 Z121.524
N66265 X-0.341 Y0.707 Z121.473
N66270 X-0.367 Y0.734 Z121.424
N66275 X-0.395 Y0.762 Z121.377
N66280 X-0.426 Y0.792 Z121.333
N66285 X-0.459 Y0.822 Z121.291
N66290 X-0.494 Y0.854 Z121.253
N66295 X-0.532 Y0.887 Z121.217
N66300 X-0.572 Y0.92 Z121.185
N66305 X-0.615 Y0.954 Z121.156
N66310 X-0.659 Y0.987 Z121.13
N66315 X-0.706 Y1.02 Z121.107
N66320 X-0.754 Y1.053 Z121.089
N66325 X-0.805 Y1.085 Z121.073
N66330 X-0.856 Y1.117 Z121.062
N66335 X-0.909 Y1.147 Z121.054
N66340 X-0.963 Y1.176 Z121.05
N66345 G03 X-3.163 Y-3.034 Z120.789 I-1.1 J-2.105
N66350 X-0.963 Y1.176 Z120.529 I1.1 J2.105
N66355 X-3.163 Y-3.034 Z120.268 I-1.1 J-2.105
N66360 X0.092 Y-1.929 Z120.134 I1.1 J2.105
N66365 X-1.165 Y1.27 Z120. I-2.154 J1.
N66370 G01 X-1.908 Y1.573 F1000.
N66375 G03 X-3.055 Y0.803 I-0.315 J-0.77
N66380 G01 Y-0.558
N66385 G03 X-1.682 Y-1.481 I0.996
N66390 G01 X0.354 Y-0.65
N66395 G03 Y0.65 I-0.265 J0.65
N66400 G01 X-1.165 Y1.27
N66405 G02 X-2.666 Y3.486 I0.912 J2.234
N66410 G03 X-4.167 Y5.703 I-2.413 J-0.017
N66415 G01 X-4.878 Y5.993
N66420 G03 X-6.025 Y5.223 I-0.315 J-0.77
N66425 G01 Y-4.979
N66430 G03 X-4.652 Y-5.901 I0.996
N66435 G01 X4.447 Y-2.186
N66440 G03 Y2.186 I-0.893 J2.186
N66445 G01 X-4.167 Y5.703
N66450 G02 X-5.895 Y8.255 I1.05 J2.572
N66455 G03 X-7.623 Y10.807 I-2.778 J-0.02

!!! BLOCKS SKIPPED HERE !!!
!!! PROGRAM IS ONLY FOR REVIEW !!!

N67380 M05
N67385 G28 G91 Z0.
N67390 G90
N67395 G49

(PARALLEL 45DEG)
N67400 M09
N67405 M01
N67410 T3 M06
N67415 T4
N67420 S5000 M03
N67425 G17 G90 G94
N67430 G69
N67435 G54
N67440 G68.2 X0. Y0. Z0. I90. J45. K-90.
N67445 G53.1
N67450 M08
N67455 G00 X-20.748 Y-29.347
N67460 G43 Z157.836 H03
N67465 G00 Z121.995
N67470 G01 Z120.6 F333.
N67475 G18 G03 X-21.348 Z120. I-0.6 F1000.
N67480 G01 X-21.421
N67485 X-21.489 Z120.008
N67490 X-21.553 Z120.031
N67495 X-21.618 Z120.053
N67500 X-21.685 Z120.061
N67505 G17 G02 X-22.585 Y-28.447 J0.9
N67510 G01 Y-27.25
N67515 G02 X-21.685 Y-26.35 I0.9
N67520 G01 X-21.618 Z120.053
N67525 X-21.553 Z120.031
N67530 X-21.489 Z120.008
N67535 X-21.421 Z120.
N67540 X-14.007
N67545 X-13.939 Z120.008
N67550 X-13.875 Z120.031
N67555 X-13.811 Z120.053
N67560 X-13.743 Z120.061
N67565 X-6.402
N67570 G03 X-5.502 Y-25.45 J0.9
N67575 G01 Y-24.254
N67580 G03 X-6.402 Y-23.354 I-0.9
N67585 G01 X-6.47 Z120.053
N67590 X-6.534 Z120.031
N67595 X-6.598 Z120.008
N67600 X-6.666 Z120.
N67605 X-21.421
N67610 X-21.489 Z120.008
N67615 X-21.553 Z120.031
N67620 X-21.618 Z120.053
N67625 X-21.685 Z120.061
N67630 G02 X-22.585 Y-22.454 J0.9
N67635 G01 Y-21.257
N67640 G02 X-21.685 Y-20.357 I0.9
N67645 G01 X-21.618 Z120.053
N67650 X-21.553 Z120.031
N67655 X-21.489 Z120.008
N67660 X-21.421 Z120.
N67665 X0.675
N67670 X0.743 Z120.008
N67675 X0.807 Z120.031
N67680 X0.871 Z120.053
N67685 X0.939 Z120.061
N67690 X8.28
N67695 G03 X9.18 Y-19.457 J0.9
N67700 G01 Y-18.26
N67705 G03 X8.28 Y-17.36 I-0.9

(!!! BLOCKS SKIPPED HERE !!!)
(!!! PROGRAM IS ONLY FOR REVIEW !!!)

N68680 G17
N68685 M05
N68690 G28 G91 Z0.
N68695 G90
N68700 G49

(HORIZONTAL 60DEG)
N68705 M09
N68710 M01
N68715 T4 M06
N68720 T1
N68725 S5000 M03
N68730 G17 G90 G94
N68735 G69
N68740 G54
N68745 G68.2 X0. Y0. Z0. I60. J60. K-90.
N68750 G53.1
N68755 M08
N68760 G00 X10.68 Y8.838
N68765 G43 Z184.984 H04
N68770 G00 Z116.
N68775 G01 X10.672 Y8.837 Z115.879 F1000.
N68780 X10.651 Y8.834 Z115.761
N68785 X10.615 Y8.828 Z115.645
N68790 X10.566 Y8.821 Z115.535
N68795 X10.505 Y8.812 Z115.432
N68800 X10.431 Y8.801 Z115.337
N68805 X10.346 Y8.789 Z115.251
N68810 X10.252 Y8.775 Z115.177
N68815 X10.15 Y8.76 Z115.115
N68820 X10.041 Y8.744 Z115.065
N68825 X9.927 Y8.727 Z115.029
N68830 X9.81 Y8.709 Z115.007
N68835 X9.69 Y8.692 Z115.
N68840 X9.656 Y8.686
N68845 X-18.667 Y3.491
N68850 G02 X-19.837 Y4.329 I-0.18 J0.984
N68855 G03 X-22.675 Y5.382 I-1.708 J-0.252
N68860 G01 X-26.65 Y1.94
N68865 G03 Y-1.94 I1.68 J-1.94
N68870 G01 X-22.676 Y-5.381
N68875 G03 X-19.832 Y-4.307 I1.131 J1.306
N68880 X-19.53 Y0.011 I-33.019 J4.482
N68885 X-19.837 Y4.329 I-28.575 J0.141
N68890 G02 X-18.382 Y7.513 I3.182 J0.47
N68895 G03 X-17.195 Y10.806 I-1.537 J2.414
N68900 X-17.451 Y11.57 I-32.92 J-10.629
N68905 X-20.712 Y12.44 I-1.925 J-0.672
N68910 G01 X-30.168 Y4.251
N68915 G03 Y-4.251 I3.681 J-4.251
N68920 G01 X-20.714 Y-12.438
N68925 G03 X-17.443 Y-11.546 I1.336 J1.543
N68930 X-15.522 Y0.012 I-34.853 J11.734
N68935 X-17.195 Y10.806 I-34.593 J0.165
N68940 G02 X-16.259 Y14.208 I3.06 J0.988
N68945 G03 X-15.552 Y17.665 I-1.932 J2.196
N68950 X-15.823 Y18.22 I-36.518 J-17.451
N68955 X-19.396 Y18.937 I-2.064 J-1.025
N68960 G01 X-33.598 Y6.637
N68965 G03 Y-6.637 I5.748 J-6.637
N68970 G01 X-19.391 Y-18.941
N68975 G03 X-15.818 Y-18.204 I1.504 J1.737
N68980 X-11.598 Y0.009 I-38.111 J18.427
N68985 X-15.552 Y17.665 I-40.473 J0.205
N68990 G02 X-14.997 Y21.125 I2.78 J1.329
N68995 G03 X-14.7 Y24.617 I-2.016 J1.931
N69000 X-18.45 Y25.114 I-2.096 J-1.414
N69005 G01 X-37.578 Y8.549
N69010 G03 X-40.883 Y1.313 I6.266 J-7.235

(!!! BLOCKS SKIPPED HERE !!!)
(!!! PROGRAM IS ONLY FOR REVIEW !!!)

N70480 M05
N70485 G28 G91 Z0.
N70490 G90
N70495 G49

(HORIZONTAL 45DEG)
N70500 M09
N70505 M01
N70510 T1 M06
N70515 T3
N70520 S5000 M03
N70525 G17 G90 G94
N70530 G69
N70535 G54
N70540 G68.2 X0. Y0. Z0. I30. J45. K-90.
N70545 G53.1
N70550 M08
N70555 G00 X-0.22 Y0.57
N70560 G43 Z157.836 H01
N70565 G00 Z122.049
N70570 G01 X-0.222 Y0.571 Z121.988 F333.
N70575 X-0.225 Y0.576 Z121.927
N70580 X-0.231 Y0.583 Z121.866
N70585 X-0.24 Y0.593 Z121.806
N70590 X-0.25 Y0.606 Z121.747
N70595 X-0.264 Y0.621 Z121.689
N70600 X-0.279 Y0.639 Z121.632
N70605 X-0.297 Y0.66 Z121.577
N70610 X-0.318 Y0.682 Z121.524
N70615 X-0.341 Y0.707 Z121.473
N70620 X-0.367 Y0.734 Z121.424
N70625 X-0.395 Y0.762 Z121.377
N70630 X-0.426 Y0.792 Z121.333
N70635 X-0.459 Y0.822 Z121.291
N70640 X-0.494 Y0.854 Z121.253
N70645 X-0.532 Y0.887 Z121.217
N70650 X-0.572 Y0.92 Z121.185
N70655 X-0.615 Y0.954 Z121.156
N70660 X-0.659 Y0.987 Z121.13
N70665 X-0.706 Y1.02 Z121.107
N70670 X-0.754 Y1.053 Z121.089
N70675 X-0.805 Y1.085 Z121.073
N70680 X-0.856 Y1.117 Z121.062
N70685 X-0.909 Y1.147 Z121.054
N70690 X-0.963 Y1.176 Z121.05
N70695 G03 X-3.163 Y-3.034 Z120.789 I-1.1 J-2.105
N70700 X-0.963 Y1.176 Z120.529 I1.1 J2.105
N70705 X-3.163 Y-3.034 Z120.268 I-1.1 J-2.105
N70710 X0.092 Y-1.929 Z120.134 I1.1 J2.105
N70715 X-1.165 Y1.27 Z120. I-2.154 J1.
N70720 G01 X-1.908 Y1.573 F1000.
N70725 G03 X-3.055 Y0.803 I-0.315 J-0.77
N70730 G01 Y-0.558
N70735 G03 X-1.682 Y-1.481 I0.996
N70740 G01 X0.354 Y-0.65
N70745 G03 Y0.65 I-0.265 J0.65
N70750 G01 X-1.165 Y1.27
N70755 G02 X-2.666 Y3.486 I0.912 J2.234
N70760 G03 X-4.167 Y5.703 I-2.413 J-0.017
N70765 G01 X-4.878 Y5.993
N70770 G03 X-6.025 Y5.223 I-0.315 J-0.77
N70775 G01 Y-4.979
N70780 G03 X-4.652 Y-5.901 I0.996
N70785 G01 X4.447 Y-2.186
N70790 G03 Y2.186 I-0.893 J2.186
N70795 G01 X-4.167 Y5.703
N70800 G02 X-5.895 Y8.255 I1.05 J2.572
N70805 G03 X-7.623 Y10.807 I-2.778 J-0.02

(!!! BLOCKS SKIPPED HERE !!!)
(!!! PROGRAM IS ONLY FOR REVIEW !!!)

N71730 M05
N71735 G28 G91 Z0.
N71740 G90
N71745 G49

(PARALLEL 45DEG)
N71750 M09
N71755 M01
N71760 T3 M06
N71765 T4
N71770 S5000 M03
N71775 G17 G90 G94
N71780 G69
N71785 G54
N71790 G68.2 X0. Y0. Z0. I30. J45. K-90.
N71795 G53.1
N71800 M08
N71805 G00 X-20.748 Y-29.347
N71810 G43 Z157.836 H03
N71815 G00 Z121.995
N71820 G01 Z120.6 F333.
N71825 G18 G03 X-21.348 Z120. I-0.6 F1000.
N71830 G01 X-21.421
N71835 X-21.489 Z120.008
N71840 X-21.553 Z120.031
N71845 X-21.618 Z120.053
N71850 X-21.685 Z120.061
N71855 G17 G02 X-22.585 Y-28.447 J0.9
N71860 G01 Y-27.25
N71865 G02 X-21.685 Y-26.35 I0.9
N71870 G01 X-21.618 Z120.053
N71875 X-21.553 Z120.031
N71880 X-21.489 Z120.008
N71885 X-21.421 Z120.
N71890 X-14.007
N71895 X-13.939 Z120.008
N71900 X-13.875 Z120.031
N71905 X-13.811 Z120.053
N71910 X-13.743 Z120.061
N71915 X-6.402
N71920 G03 X-5.502 Y-25.45 J0.9
N71925 G01 Y-24.254
N71930 G03 X-6.402 Y-23.354 I-0.9
N71935 G01 X-6.47 Z120.053
N71940 X-6.534 Z120.031
N71945 X-6.598 Z120.008
N71950 X-6.666 Z120.
N71955 X-21.421
N71960 X-21.489 Z120.008
N71965 X-21.553 Z120.031
N71970 X-21.618 Z120.053
N71975 X-21.685 Z120.061
N71980 G02 X-22.585 Y-22.454 J0.9
N71985 G01 Y-21.257
N71990 G02 X-21.685 Y-20.357 I0.9
N71995 G01 X-21.618 Z120.053
N72000 X-21.553 Z120.031
N72005 X-21.489 Z120.008
N72010 X-21.421 Z120.
N72015 X0.675
N72020 X0.743 Z120.008
N72025 X0.807 Z120.031
N72030 X0.871 Z120.053
N72035 X0.939 Z120.061
N72040 X8.28
N72045 G03 X9.18 Y-19.457 J0.9
N72050 G01 Y-18.26
N72055 G03 X8.28 Y-17.36 I-0.9

(!!! BLOCKS SKIPPED HERE !!!)
(!!! PROGRAM IS ONLY FOR REVIEW !!!)

N73030 G17
N73035 M05
N73040 G28 G91 Z0.
N73045 G90
N73050 G49

(HORIZONTAL 60DEG)
N73055 M09
N73060 M01
N73065 T4 M06
N73070 T1
N73075 S5000 M03
N73080 G17 G90 G94
N73085 G69
N73090 G54
N73095 G68.2 X0. Y0. Z0. I0. J60. K-90.
N73100 G53.1
N73105 M08
N73110 G00 X10.68 Y8.838
N73115 G43 Z184.984 H04
N73120 G00 Z116.
N73125 G01 X10.672 Y8.837 Z115.879 F1000.
N73130 X10.651 Y8.834 Z115.761
N73135 X10.615 Y8.828 Z115.645
N73140 X10.566 Y8.821 Z115.535
N73145 X10.505 Y8.812 Z115.432
N73150 X10.431 Y8.801 Z115.337
N73155 X10.346 Y8.789 Z115.251
N73160 X10.252 Y8.775 Z115.177
N73165 X10.15 Y8.76 Z115.115
N73170 X10.041 Y8.744 Z115.065
N73175 X9.927 Y8.727 Z115.029
N73180 X9.81 Y8.709 Z115.007
N73185 X9.69 Y8.692 Z115.
N73190 X9.656 Y8.686
N73195 X-18.667 Y3.491
N73200 G02 X-19.837 Y4.329 I-0.18 J0.984
N73205 G03 X-22.675 Y5.382 I-1.708 J-0.252
N73210 G01 X-26.65 Y1.94
N73215 G03 Y-1.94 I1.68 J-1.94
N73220 G01 X-22.676 Y-5.381
N73225 G03 X-19.832 Y-4.307 I1.131 J1.306
N73230 X-19.53 Y0.011 I-33.019 J4.482
N73235 X-19.837 Y4.329 I-28.575 J0.141
N73240 G02 X-18.382 Y7.513 I3.182 J0.47
N73245 G03 X-17.195 Y10.806 I-1.537 J2.414
N73250 X-17.451 Y11.57 I-32.92 J-10.629
N73255 X-20.712 Y12.44 I-1.925 J-0.672
N73260 G01 X-30.168 Y4.251
N73265 G03 Y-4.251 I3.681 J-4.251
N73270 G01 X-20.714 Y-12.438
N73275 G03 X-17.443 Y-11.546 I1.336 J1.543
N73280 X-15.522 Y0.012 I-34.853 J11.734
N73285 X-17.195 Y10.806 I-34.593 J0.165
N73290 G02 X-16.259 Y14.208 I3.06 J0.988
N73295 G03 X-15.552 Y17.665 I-1.932 J2.196
N73300 X-15.823 Y18.22 I-36.518 J-17.451
N73305 X-19.396 Y18.937 I-2.064 J-1.025
N73310 G01 X-33.598 Y6.637
N73315 G03 Y-6.637 I5.748 J-6.637
N73320 G01 X-19.391 Y-18.941
N73325 G03 X-15.818 Y-18.204 I1.504 J1.737
N73330 X-11.598 Y0.009 I-38.111 J18.427
N73335 X-15.552 Y17.665 I-40.473 J0.205
N73340 G02 X-14.997 Y21.125 I2.78 J1.329
N73345 G03 X-14.7 Y24.617 I-2.016 J1.931
N73350 X-18.45 Y25.114 I-2.096 J-1.414
N73355 G01 X-37.578 Y8.549
N73360 G03 X-40.883 Y1.313 I6.266 J-7.235

(!!! BLOCKS SKIPPED HERE !!!)
(!!! PROGRAM IS ONLY FOR REVIEW !!!)

N74830 M05
N74835 G28 G91 Z0.
N74840 G90
N74845 G49

(HORIZONTAL 45DEG)
N74850 M09
N74855 M01
N74860 T1 M06
N74865 T3
N74870 S5000 M03
N74875 G17 G90 G94
N74880 G69
N74885 G54
N74890 G68.2 X0. Y0. Z0. I-30. J45. K-90.
N74895 G53.1
N74900 M08
N74905 G00 X-0.22 Y0.57
N74910 G43 Z157.836 H01
N74915 G00 Z122.049
N74920 G01 X-0.222 Y0.571 Z121.988 F333.
N74925 X-0.225 Y0.576 Z121.927
N74930 X-0.231 Y0.583 Z121.866
N74935 X-0.24 Y0.593 Z121.806
N74940 X-0.25 Y0.606 Z121.747
N74945 X-0.264 Y0.621 Z121.689
N74950 X-0.279 Y0.639 Z121.632
N74955 X-0.297 Y0.66 Z121.577
N74960 X-0.318 Y0.682 Z121.524
N74965 X-0.341 Y0.707 Z121.473
N74970 X-0.367 Y0.734 Z121.424
N74975 X-0.395 Y0.762 Z121.377
N74980 X-0.426 Y0.792 Z121.333
N74985 X-0.459 Y0.822 Z121.291
N74990 X-0.494 Y0.854 Z121.253
N74995 X-0.532 Y0.887 Z121.217
N75000 X-0.572 Y0.92 Z121.185
N75005 X-0.615 Y0.954 Z121.156
N75010 X-0.659 Y0.987 Z121.13
N75015 X-0.706 Y1.02 Z121.107
N75020 X-0.754 Y1.053 Z121.089
N75025 X-0.805 Y1.085 Z121.073
N75030 X-0.856 Y1.117 Z121.062
N75035 X-0.909 Y1.147 Z121.054
N75040 X-0.963 Y1.176 Z121.05
N75045 G03 X-3.163 Y-3.034 Z120.789 I-1.1 J-2.105
N75050 X-0.963 Y1.176 Z120.529 I1.1 J2.105
N75055 X-3.163 Y-3.034 Z120.268 I-1.1 J-2.105
N75060 X0.092 Y-1.929 Z120.134 I1.1 J2.105
N75065 X-1.165 Y1.27 Z120. I-2.154 J1.
N75070 G01 X-1.908 Y1.573 F1000.
N75075 G03 X-3.055 Y0.803 I-0.315 J-0.77
N75080 G01 Y-0.558
N75085 G03 X-1.682 Y-1.481 I0.996
N75090 G01 X0.354 Y-0.65
N75095 G03 Y0.65 I-0.265 J0.65
N75100 G01 X-1.165 Y1.27
N75105 G02 X-2.666 Y3.486 I0.912 J2.234
N75110 G03 X-4.167 Y5.703 I-2.413 J-0.017
N75115 G01 X-4.878 Y5.993
N75120 G03 X-6.025 Y5.223 I-0.315 J-0.77
N75125 G01 Y-4.979
N75130 G03 X-4.652 Y-5.901 I0.996
N75135 G01 X4.447 Y-2.186
N75140 G03 Y2.186 I-0.893 J2.186
N75145 G01 X-4.167 Y5.703
N75150 G02 X-5.895 Y8.255 I1.05 J2.572
N75155 G03 X-7.623 Y10.807 I-2.778 J-0.02

(!!! BLOCKS SKIPPED HERE !!!)
(!!! PROGRAM IS ONLY FOR REVIEW !!!)

N76080 M05
N76085 G28 G91 Z0.
N76090 G90
N76095 G49

(PARALLEL 45DEG)
N76100 M09
N76105 M01
N76110 T3 M06
N76115 T4
N76120 S5000 M03
N76125 G17 G90 G94
N76130 G69
N76135 G54
N76140 G68.2 X0. Y0. Z0. I-30. J45. K-90.
N76145 G53.1
N76150 M08
N76155 G00 X-20.748 Y-29.347
N76160 G43 Z157.836 H03
N76165 G00 Z121.995
N76170 G01 Z120.6 F333.
N76175 G18 G03 X-21.348 Z120. I-0.6 F1000.
N76180 G01 X-21.421
N76185 X-21.489 Z120.008
N76190 X-21.553 Z120.031
N76195 X-21.618 Z120.053
N76200 X-21.685 Z120.061
N76205 G17 G02 X-22.585 Y-28.447 J0.9
N76210 G01 Y-27.25
N76215 G02 X-21.685 Y-26.35 I0.9
N76220 G01 X-21.618 Z120.053
N76225 X-21.553 Z120.031
N76230 X-21.489 Z120.008
N76235 X-21.421 Z120.
N76240 X-14.007
N76245 X-13.939 Z120.008
N76250 X-13.875 Z120.031
N76255 X-13.811 Z120.053
N76260 X-13.743 Z120.061
N76265 X-6.402
N76270 G03 X-5.502 Y-25.45 J0.9
N76275 G01 Y-24.254
N76280 G03 X-6.402 Y-23.354 I-0.9
N76285 G01 X-6.47 Z120.053
N76290 X-6.534 Z120.031
N76295 X-6.598 Z120.008
N76300 X-6.666 Z120.
N76305 X-21.421
N76310 X-21.489 Z120.008
N76315 X-21.553 Z120.031
N76320 X-21.618 Z120.053
N76325 X-21.685 Z120.061
N76330 G02 X-22.585 Y-22.454 J0.9
N76335 G01 Y-21.257
N76340 G02 X-21.685 Y-20.357 I0.9
N76345 G01 X-21.618 Z120.053
N76350 X-21.553 Z120.031
N76355 X-21.489 Z120.008
N76360 X-21.421 Z120.
N76365 X0.675
N76370 X0.743 Z120.008
N76375 X0.807 Z120.031
N76380 X0.871 Z120.053
N76385 X0.939 Z120.061
N76390 X8.28
N76395 G03 X9.18 Y-19.457 J0.9
N76400 G01 Y-18.26
N76405 G03 X8.28 Y-17.36 I-0.9

(!!! BLOCKS SKIPPED HERE !!!)
(!!! PROGRAM IS ONLY FOR REVIEW !!!)

N77380 G17
N77385 M05
N77390 G28 G91 Z0.
N77395 G90
N77400 G49

(HORIZONTAL 60DEG)
N77405 M09
N77410 M01
N77415 T4 M06
N77420 T1
N77425 S5000 M03
N77430 G17 G90 G94
N77435 G69
N77440 G54
N77445 G68.2 X0. Y0. Z0. I-60. J60. K-90.
N77450 G53.1
N77455 M08
N77460 G00 X10.68 Y8.838
N77465 G43 Z184.984 H04
N77470 G00 Z116.
N77475 G01 X10.672 Y8.837 Z115.879 F1000.
N77480 X10.651 Y8.834 Z115.761
N77485 X10.615 Y8.828 Z115.645
N77490 X10.566 Y8.821 Z115.535
N77495 X10.505 Y8.812 Z115.432
N77500 X10.431 Y8.801 Z115.337
N77505 X10.346 Y8.789 Z115.251
N77510 X10.252 Y8.775 Z115.177
N77515 X10.15 Y8.76 Z115.115
N77520 X10.041 Y8.744 Z115.065
N77525 X9.927 Y8.727 Z115.029
N77530 X9.81 Y8.709 Z115.007
N77535 X9.69 Y8.692 Z115.
N77540 X9.656 Y8.686
N77545 X-18.667 Y3.491
N77550 G02 X-19.837 Y4.329 I-0.18 J0.984
N77555 G03 X-22.675 Y5.382 I-1.708 J-0.252
N77560 G01 X-26.65 Y1.94
N77565 G03 Y-1.94 I1.68 J-1.94
N77570 G01 X-22.676 Y-5.381
N77575 G03 X-19.832 Y-4.307 I1.131 J1.306
N77580 X-19.53 Y0.011 I-33.019 J4.482
N77585 X-19.837 Y4.329 I-28.575 J0.141
N77590 G02 X-18.382 Y7.513 I3.182 J0.47
N77595 G03 X-17.195 Y10.806 I-1.537 J2.414
N77600 X-17.451 Y11.57 I-32.92 J-10.629
N77605 X-20.712 Y12.44 I-1.925 J-0.672
N77610 G01 X-30.168 Y4.251
N77615 G03 Y-4.251 I3.681 J-4.251
N77620 G01 X-20.714 Y-12.438
N77625 G03 X-17.443 Y-11.546 I1.336 J1.543
N77630 X-15.522 Y0.012 I-34.853 J11.734
N77635 X-17.195 Y10.806 I-34.593 J0.165
N77640 G02 X-16.259 Y14.208 I3.06 J0.988
N77645 G03 X-15.552 Y17.665 I-1.932 J2.196
N77650 X-15.823 Y18.22 I-36.518 J-17.451
N77655 X-19.396 Y18.937 I-2.064 J-1.025
N77660 G01 X-33.598 Y6.637
N77665 G03 Y-6.637 I5.748 J-6.637
N77670 G01 X-19.391 Y-18.941
N77675 G03 X-15.818 Y-18.204 I1.504 J1.737
N77680 X-11.598 Y0.009 I-38.111 J18.427
N77685 X-15.552 Y17.665 I-40.473 J0.205
N77690 G02 X-14.997 Y21.125 I2.78 J1.329
N77695 G03 X-14.7 Y24.617 I-2.016 J1.931
N77700 X-18.45 Y25.114 I-2.096 J-1.414
N77705 G01 X-37.578 Y8.549
N77710 G03 X-40.883 Y1.313 I6.266 J-7.235

(!!! BLOCKS SKIPPED HERE !!!)
(!!! PROGRAM IS ONLY FOR REVIEW !!!)

N79180 M05
N79185 G28 G91 Z0.
N79190 G90
N79195 G49

(HORIZONTAL 45DEG)
N79200 M09
N79205 M01
N79210 T1 M06
N79215 T3
N79220 S5000 M03
N79225 G17 G90 G94
N79230 G69
N79235 G54
N79240 G68.2 X0. Y0. Z0. I-90. J45. K-90.
N79245 G53.1
N79250 M08
N79255 G00 X-0.22 Y0.57
N79260 G43 Z157.836 H01
N79265 G00 Z122.049
N79270 G01 X-0.222 Y0.571 Z121.988 F333.
N79275 X-0.225 Y0.576 Z121.927
N79280 X-0.231 Y0.583 Z121.866
N79285 X-0.24 Y0.593 Z121.806
N79290 X-0.25 Y0.606 Z121.747
N79295 X-0.264 Y0.621 Z121.689
N79300 X-0.279 Y0.639 Z121.632
N79305 X-0.297 Y0.66 Z121.577
N79310 X-0.318 Y0.682 Z121.524
N79315 X-0.341 Y0.707 Z121.473
N79320 X-0.367 Y0.734 Z121.424
N79325 X-0.395 Y0.762 Z121.377
N79330 X-0.426 Y0.792 Z121.333
N79335 X-0.459 Y0.822 Z121.291
N79340 X-0.494 Y0.854 Z121.253
N79345 X-0.532 Y0.887 Z121.217
N79350 X-0.572 Y0.92 Z121.185
N79355 X-0.615 Y0.954 Z121.156
N79360 X-0.659 Y0.987 Z121.13
N79365 X-0.706 Y1.02 Z121.107
N79370 X-0.754 Y1.053 Z121.089
N79375 X-0.805 Y1.085 Z121.073
N79380 X-0.856 Y1.117 Z121.062
N79385 X-0.909 Y1.147 Z121.054
N79390 X-0.963 Y1.176 Z121.05
N79395 G03 X-3.163 Y-3.034 Z120.789 I-1.1 J-2.105
N79400 X-0.963 Y1.176 Z120.529 I1.1 J2.105
N79405 X-3.163 Y-3.034 Z120.268 I-1.1 J-2.105
N79410 X0.092 Y-1.929 Z120.134 I1.1 J2.105
N79415 X-1.165 Y1.27 Z120. I-2.154 J1.
N79420 G01 X-1.908 Y1.573 F1000.
N79425 G03 X-3.055 Y0.803 I-0.315 J-0.77
N79430 G01 Y-0.558
N79435 G03 X-1.682 Y-1.481 I0.996
N79440 G01 X0.354 Y-0.65
N79445 G03 Y0.65 I-0.265 J0.65
N79450 G01 X-1.165 Y1.27
N79455 G02 X-2.666 Y3.486 I0.912 J2.234
N79460 G03 X-4.167 Y5.703 I-2.413 J-0.017
N79465 G01 X-4.878 Y5.993
N79470 G03 X-6.025 Y5.223 I-0.315 J-0.77
N79475 G01 Y-4.979
N79480 G03 X-4.652 Y-5.901 I0.996
N79485 G01 X4.447 Y-2.186
N79490 G03 Y2.186 I-0.893 J2.186
N79495 G01 X-4.167 Y5.703
N79500 G02 X-5.895 Y8.255 I1.05 J2.572
N79505 G03 X-7.623 Y10.807 I-2.778 J-0.02

(!!! BLOCKS SKIPPED HERE !!!)
(!!! PROGRAM IS ONLY FOR REVIEW !!!)

N80430 M05
N80435 G28 G91 Z0.
N80440 G90
N80445 G49

(PARALLEL 45DEG)
N80450 M09
N80455 M01
N80460 T3 M06
N80465 T4
N80470 S5000 M03
N80475 G17 G90 G94
N80480 G69
N80485 G54
N80490 G68.2 X0. Y0. Z0. I-90. J45. K-90.
N80495 G53.1
N80500 M08
N80505 G00 X-20.748 Y-29.347
N80510 G43 Z157.836 H03
N80515 G00 Z121.995
N80520 G01 Z120.6 F333.
N80525 G18 G03 X-21.348 Z120. I-0.6 F1000.
N80530 G01 X-21.421
N80535 X-21.489 Z120.008
N80540 X-21.553 Z120.031
N80545 X-21.618 Z120.053
N80550 X-21.685 Z120.061
N80555 G17 G02 X-22.585 Y-28.447 J0.9
N80560 G01 Y-27.25
N80565 G02 X-21.685 Y-26.35 I0.9
N80570 G01 X-21.618 Z120.053
N80575 X-21.553 Z120.031
N80580 X-21.489 Z120.008
N80585 X-21.421 Z120.
N80590 X-14.007
N80595 X-13.939 Z120.008
N80600 X-13.875 Z120.031
N80605 X-13.811 Z120.053
N80610 X-13.743 Z120.061
N80615 X-6.402
N80620 G03 X-5.502 Y-25.45 J0.9
N80625 G01 Y-24.254
N80630 G03 X-6.402 Y-23.354 I-0.9
N80635 G01 X-6.47 Z120.053
N80640 X-6.534 Z120.031
N80645 X-6.598 Z120.008
N80650 X-6.666 Z120.
N80655 X-21.421
N80660 X-21.489 Z120.008
N80665 X-21.553 Z120.031
N80670 X-21.618 Z120.053
N80675 X-21.685 Z120.061
N80680 G02 X-22.585 Y-22.454 J0.9
N80685 G01 Y-21.257
N80690 G02 X-21.685 Y-20.357 I0.9
N80695 G01 X-21.618 Z120.053
N80700 X-21.553 Z120.031
N80705 X-21.489 Z120.008
N80710 X-21.421 Z120.
N80715 X0.675
N80720 X0.743 Z120.008
N80725 X0.807 Z120.031
N80730 X0.871 Z120.053
N80735 X0.939 Z120.061
N80740 X8.28
N80745 G03 X9.18 Y-19.457 J0.9
N80750 G01 Y-18.26
N80755 G03 X8.28 Y-17.36 I-0.9

(!!! BLOCKS SKIPPED HERE !!!)
(!!! PROGRAM IS ONLY FOR REVIEW !!!)

N81730 G17
N81735 M05
N81740 G28 G91 Z0.
N81745 G90
N81750 G49

(HORIZONTAL 60DEG)
N81755 M09
N81760 M01
N81765 T4 M06
N81770 T1
N81775 S5000 M03
N81780 G17 G90 G94
N81785 G69
N81790 G54
N81795 G68.2 X0. Y0. Z0. I-120. J60. K-90.
N81800 G53.1
N81805 M08
N81810 G00 X10.68 Y8.838
N81815 G43 Z184.984 H04
N81820 G00 Z116.
N81825 G01 X10.672 Y8.837 Z115.879 F1000.
N81830 X10.651 Y8.834 Z115.761
N81835 X10.615 Y8.828 Z115.645
N81840 X10.566 Y8.821 Z115.535
N81845 X10.505 Y8.812 Z115.432
N81850 X10.431 Y8.801 Z115.337
N81855 X10.346 Y8.789 Z115.251
N81860 X10.252 Y8.775 Z115.177
N81865 X10.15 Y8.76 Z115.115
N81870 X10.041 Y8.744 Z115.065
N81875 X9.927 Y8.727 Z115.029
N81880 X9.81 Y8.709 Z115.007
N81885 X9.69 Y8.692 Z115.
N81890 X9.656 Y8.686
N81895 X-18.667 Y3.491
N81900 G02 X-19.837 Y4.329 I-0.18 J0.984
N81905 G03 X-22.675 Y5.382 I-1.708 J-0.252
N81910 G01 X-26.65 Y1.94
N81915 G03 Y-1.94 I1.68 J-1.94
N81920 G01 X-22.676 Y-5.381
N81925 G03 X-19.832 Y-4.307 I1.131 J1.306
N81930 X-19.53 Y0.011 I-33.019 J4.482
N81935 X-19.837 Y4.329 I-28.575 J0.141
N81940 G02 X-18.382 Y7.513 I3.182 J0.47
N81945 G03 X-17.195 Y10.806 I-1.537 J2.414
N81950 X-17.451 Y11.57 I-32.92 J-10.629
N81955 X-20.712 Y12.44 I-1.925 J-0.672
N81960 G01 X-30.168 Y4.251
N81965 G03 Y-4.251 I3.681 J-4.251
N81970 G01 X-20.714 Y-12.438
N81975 G03 X-17.443 Y-11.546 I1.336 J1.543
N81980 X-15.522 Y0.012 I-34.853 J11.734
N81985 X-17.195 Y10.806 I-34.593 J0.165
N81990 G02 X-16.259 Y14.208 I3.06 J0.988
N81995 G03 X-15.552 Y17.665 I-1.932 J2.196
N82000 X-15.823 Y18.22 I-36.518 J-17.451
N82005 X-19.396 Y18.937 I-2.064 J-1.025
N82010 G01 X-33.598 Y6.637
N82015 G03 Y-6.637 I5.748 J-6.637
N82020 G01 X-19.391 Y-18.941
N82025 G03 X-15.818 Y-18.204 I1.504 J1.737
N82030 X-11.598 Y0.009 I-38.111 J18.427
N82035 X-15.552 Y17.665 I-40.473 J0.205
N82040 G02 X-14.997 Y21.125 I2.78 J1.329
N82045 G03 X-14.7 Y24.617 I-2.016 J1.931
N82050 X-18.45 Y25.114 I-2.096 J-1.414
N82055 G01 X-37.578 Y8.549
N82060 G03 X-40.883 Y1.313 I6.266 J-7.235

(!!! BLOCKS SKIPPED HERE !!!)
(!!! PROGRAM IS ONLY FOR REVIEW !!!)

N83530 M05
N83535 G28 G91 Z0.
N83540 G90
N83545 G49

(HORIZONTAL 45DEG)
N83550 M09
N83555 M01
N83560 T1 M06
N83565 T3
N83570 S5000 M03
N83575 G17 G90 G94
N83580 G69
N83585 G54
N83590 G68.2 X0. Y0. Z0. I-150. J45. K-90.
N83595 G53.1
N83600 M08
N83605 G00 X-0.22 Y0.57
N83610 G43 Z157.836 H01
N83615 G00 Z122.049
N83620 G01 X-0.222 Y0.571 Z121.988 F333.
N83625 X-0.225 Y0.576 Z121.927
N83630 X-0.231 Y0.583 Z121.866
N83635 X-0.24 Y0.593 Z121.806
N83640 X-0.25 Y0.606 Z121.747
N83645 X-0.264 Y0.621 Z121.689
N83650 X-0.279 Y0.639 Z121.632
N83655 X-0.297 Y0.66 Z121.577
N83660 X-0.318 Y0.682 Z121.524
N83665 X-0.341 Y0.707 Z121.473
N83670 X-0.367 Y0.734 Z121.424
N83675 X-0.395 Y0.762 Z121.377
N83680 X-0.426 Y0.792 Z121.333
N83685 X-0.459 Y0.822 Z121.291
N83690 X-0.494 Y0.854 Z121.253
N83695 X-0.532 Y0.887 Z121.217
N83700 X-0.572 Y0.92 Z121.185
N83705 X-0.615 Y0.954 Z121.156
N83710 X-0.659 Y0.987 Z121.13
N83715 X-0.706 Y1.02 Z121.107
N83720 X-0.754 Y1.053 Z121.089
N83725 X-0.805 Y1.085 Z121.073
N83730 X-0.856 Y1.117 Z121.062
N83735 X-0.909 Y1.147 Z121.054
N83740 X-0.963 Y1.176 Z121.05
N83745 G03 X-3.163 Y-3.034 Z120.789 I-1.1 J-2.105
N83750 X-0.963 Y1.176 Z120.529 I1.1 J2.105
N83755 X-3.163 Y-3.034 Z120.268 I-1.1 J-2.105
N83760 X0.092 Y-1.929 Z120.134 I1.1 J2.105
N83765 X-1.165 Y1.27 Z120. I-2.154 J1.
N83770 G01 X-1.908 Y1.573 F1000.
N83775 G03 X-3.055 Y0.803 I-0.315 J-0.77
N83780 G01 Y-0.558
N83785 G03 X-1.682 Y-1.481 I0.996
N83790 G01 X0.354 Y-0.65
N83795 G03 Y0.65 I-0.265 J0.65
N83800 G01 X-1.165 Y1.27
N83805 G02 X-2.666 Y3.486 I0.912 J2.234
N83810 G03 X-4.167 Y5.703 I-2.413 J-0.017
N83815 G01 X-4.878 Y5.993
N83820 G03 X-6.025 Y5.223 I-0.315 J-0.77
N83825 G01 Y-4.979
N83830 G03 X-4.652 Y-5.901 I0.996
N83835 G01 X4.447 Y-2.186
N83840 G03 Y2.186 I-0.893 J2.186
N83845 G01 X-4.167 Y5.703
N83850 G02 X-5.895 Y8.255 I1.05 J2.572
N83855 G03 X-7.623 Y10.807 I-2.778 J-0.02

(!!! BLOCKS SKIPPED HERE !!!)
(!!! PROGRAM IS ONLY FOR REVIEW !!!)

N84780 M05
N84785 G28 G91 Z0.
N84790 G90
N84795 G49

(PARALLEL 45DEG)
N84800 M09
N84805 M01
N84810 T3 M06
N84815 T4
N84820 S5000 M03
N84825 G17 G90 G94
N84830 G69
N84835 G54
N84840 G68.2 X0. Y0. Z0. I-150. J45. K-90.
N84845 G53.1
N84850 M08
N84855 G00 X-20.748 Y-29.347
N84860 G43 Z157.836 H03
N84865 G00 Z121.995
N84870 G01 Z120.6 F333.
N84875 G18 G03 X-21.348 Z120. I-0.6 F1000.
N84880 G01 X-21.421
N84885 X-21.489 Z120.008
N84890 X-21.553 Z120.031
N84895 X-21.618 Z120.053
N84900 X-21.685 Z120.061
N84905 G17 G02 X-22.585 Y-28.447 J0.9
N84910 G01 Y-27.25
N84915 G02 X-21.685 Y-26.35 I0.9
N84920 G01 X-21.618 Z120.053
N84925 X-21.553 Z120.031
N84930 X-21.489 Z120.008
N84935 X-21.421 Z120.
N84940 X-14.007
N84945 X-13.939 Z120.008
N84950 X-13.875 Z120.031
N84955 X-13.811 Z120.053
N84960 X-13.743 Z120.061
N84965 X-6.402
N84970 G03 X-5.502 Y-25.45 J0.9
N84975 G01 Y-24.254
N84980 G03 X-6.402 Y-23.354 I-0.9
N84985 G01 X-6.47 Z120.053
N84990 X-6.534 Z120.031
N84995 X-6.598 Z120.008
N85000 X-6.666 Z120.
N85005 X-21.421
N85010 X-21.489 Z120.008
N85015 X-21.553 Z120.031
N85020 X-21.618 Z120.053
N85025 X-21.685 Z120.061
N85030 G02 X-22.585 Y-22.454 J0.9
N85035 G01 Y-21.257
N85040 G02 X-21.685 Y-20.357 I0.9
N85045 G01 X-21.618 Z120.053
N85050 X-21.553 Z120.031
N85055 X-21.489 Z120.008
N85060 X-21.421 Z120.
N85065 X0.675
N85070 X0.743 Z120.008
N85075 X0.807 Z120.031
N85080 X0.871 Z120.053
N85085 X0.939 Z120.061
N85090 X8.28
N85095 G03 X9.18 Y-19.457 J0.9
N85100 G01 Y-18.26
N85105 G03 X8.28 Y-17.36 I-0.9

(!!! BLOCKS SKIPPED HERE !!!)
(!!! PROGRAM IS ONLY FOR REVIEW !!!)

N86080 G17
N86085 M05
N86090 G28 G91 Z0.
N86095 G90
N86100 G49

(HORIZONTAL 60DEG)
N86105 M09
N86110 M01
N86115 T4 M06
N86120 T1
N86125 S5000 M03
N86130 G17 G90 G94
N86135 G69
N86140 G54
N86145 G68.2 X0. Y0. Z0. I180. J60. K-90.
N86150 G53.1
N86155 M08
N86160 G00 X10.68 Y8.838
N86165 G43 Z184.984 H04
N86170 G00 Z116.
N86175 G01 X10.672 Y8.837 Z115.879 F1000.
N86180 X10.651 Y8.834 Z115.761
N86185 X10.615 Y8.828 Z115.645
N86190 X10.566 Y8.821 Z115.535
N86195 X10.505 Y8.812 Z115.432
N86200 X10.431 Y8.801 Z115.337
N86205 X10.346 Y8.789 Z115.251
N86210 X10.252 Y8.775 Z115.177
N86215 X10.15 Y8.76 Z115.115
N86220 X10.041 Y8.744 Z115.065
N86225 X9.927 Y8.727 Z115.029
N86230 X9.81 Y8.709 Z115.007
N86235 X9.69 Y8.692 Z115.
N86240 X9.656 Y8.686
N86245 X-18.667 Y3.491
N86250 G02 X-19.837 Y4.329 I-0.18 J0.984
N86255 G03 X-22.675 Y5.382 I-1.708 J-0.252
N86260 G01 X-26.65 Y1.94
N86265 G03 Y-1.94 I1.68 J-1.94
N86270 G01 X-22.676 Y-5.381
N86275 G03 X-19.832 Y-4.307 I1.131 J1.306
N86280 X-19.53 Y0.011 I-33.019 J4.482
N86285 X-19.837 Y4.329 I-28.575 J0.141
N86290 G02 X-18.382 Y7.513 I3.182 J0.47
N86295 G03 X-17.195 Y10.806 I-1.537 J2.414
N86300 X-17.451 Y11.57 I-32.92 J-10.629
N86305 X-20.712 Y12.44 I-1.925 J-0.672
N86310 G01 X-30.168 Y4.251
N86315 G03 Y-4.251 I3.681 J-4.251
N86320 G01 X-20.714 Y-12.438
N86325 G03 X-17.443 Y-11.546 I1.336 J1.543
N86330 X-15.522 Y0.012 I-34.853 J11.734
N86335 X-17.195 Y10.806 I-34.593 J0.165
N86340 G02 X-16.259 Y14.208 I3.06 J0.988
N86345 G03 X-15.552 Y17.665 I-1.932 J2.196
N86350 X-15.823 Y18.22 I-36.518 J-17.451
N86355 X-19.396 Y18.937 I-2.064 J-1.025
N86360 G01 X-33.598 Y6.637
N86365 G03 Y-6.637 I5.748 J-6.637
N86370 G01 X-19.391 Y-18.941
N86375 G03 X-15.818 Y-18.204 I1.504 J1.737
N86380 X-11.598 Y0.009 I-38.111 J18.427
N86385 X-15.552 Y17.665 I-40.473 J0.205
N86390 G02 X-14.997 Y21.125 I2.78 J1.329
N86395 G03 X-14.7 Y24.617 I-2.016 J1.931
N86400 X-18.45 Y25.114 I-2.096 J-1.414
N86405 G01 X-37.578 Y8.549
N86410 G03 X-40.883 Y1.313 I6.266 J-7.235

(!!! BLOCKS SKIPPED HERE !!!)
(!!! PROGRAM IS ONLY FOR REVIEW !!!)

N87880 M05
N87885 G28 G91 Z0.
N87890 G90
N87895 G49

(HORIZONTAL 45DEG)
N87900 M09
N87905 M01
N87910 T1 M06
N87915 T3
N87920 S5000 M03
N87925 G17 G90 G94
N87930 G69
N87935 G54
N87940 G68.2 X0. Y0. Z0. I150. J45. K-90.
N87945 G53.1
N87950 M08
N87955 G00 X-0.22 Y0.57
N87960 G43 Z157.836 H01
N87965 G00 Z122.049
N87970 G01 X-0.222 Y0.571 Z121.988 F333.
N87975 X-0.225 Y0.576 Z121.927
N87980 X-0.231 Y0.583 Z121.866
N87985 X-0.24 Y0.593 Z121.806
N87990 X-0.25 Y0.606 Z121.747
N87995 X-0.264 Y0.621 Z121.689
N88000 X-0.279 Y0.639 Z121.632
N88005 X-0.297 Y0.66 Z121.577
N88010 X-0.318 Y0.682 Z121.524
N88015 X-0.341 Y0.707 Z121.473
N88020 X-0.367 Y0.734 Z121.424
N88025 X-0.395 Y0.762 Z121.377
N88030 X-0.426 Y0.792 Z121.333
N88035 X-0.459 Y0.822 Z121.291
N88040 X-0.494 Y0.854 Z121.253
N88045 X-0.532 Y0.887 Z121.217
N88050 X-0.572 Y0.92 Z121.185
N88055 X-0.615 Y0.954 Z121.156
N88060 X-0.659 Y0.987 Z121.13
N88065 X-0.706 Y1.02 Z121.107
N88070 X-0.754 Y1.053 Z121.089
N88075 X-0.805 Y1.085 Z121.073
N88080 X-0.856 Y1.117 Z121.062
N88085 X-0.909 Y1.147 Z121.054
N88090 X-0.963 Y1.176 Z121.05
N88095 G03 X-3.163 Y-3.034 Z120.789 I-1.1 J-2.105
N88100 X-0.963 Y1.176 Z120.529 I1.1 J2.105
N88105 X-3.163 Y-3.034 Z120.268 I-1.1 J-2.105
N88110 X0.092 Y-1.929 Z120.134 I1.1 J2.105
N88115 X-1.165 Y1.27 Z120. I-2.154 J1.
N88120 G01 X-1.908 Y1.573 F1000.
N88125 G03 X-3.055 Y0.803 I-0.315 J-0.77
N88130 G01 Y-0.558
N88135 G03 X-1.682 Y-1.481 I0.996
N88140 G01 X0.354 Y-0.65
N88145 G03 Y0.65 I-0.265 J0.65
N88150 G01 X-1.165 Y1.27
N88155 G02 X-2.666 Y3.486 I0.912 J2.234
N88160 G03 X-4.167 Y5.703 I-2.413 J-0.017
N88165 G01 X-4.878 Y5.993
N88170 G03 X-6.025 Y5.223 I-0.315 J-0.77
N88175 G01 Y-4.979
N88180 G03 X-4.652 Y-5.901 I0.996
N88185 G01 X4.447 Y-2.186
N88190 G03 Y2.186 I-0.893 J2.186
N88195 G01 X-4.167 Y5.703
N88200 G02 X-5.895 Y8.255 I1.05 J2.572
N88205 G03 X-7.623 Y10.807 I-2.778 J-0.02

(!!! BLOCKS SKIPPED HERE !!!)
(!!! PROGRAM IS ONLY FOR REVIEW !!!)

N89130 M05
N89135 G28 G91 Z0.
N89140 G90
N89145 G49

(PARALLEL 45DEG)
N89150 M09
N89155 M01
N89160 T3 M06
N89165 T4
N89170 S5000 M03
N89175 G17 G90 G94
N89180 G69
N89185 G54
N89190 G68.2 X0. Y0. Z0. I150. J45. K-90.
N89195 G53.1
N89200 M08
N89205 G00 X-20.748 Y-29.347
N89210 G43 Z157.836 H03
N89215 G00 Z121.995
N89220 G01 Z120.6 F333.
N89225 G18 G03 X-21.348 Z120. I-0.6 F1000.
N89230 G01 X-21.421
N89235 X-21.489 Z120.008
N89240 X-21.553 Z120.031
N89245 X-21.618 Z120.053
N89250 X-21.685 Z120.061
N89255 G17 G02 X-22.585 Y-28.447 J0.9
N89260 G01 Y-27.25
N89265 G02 X-21.685 Y-26.35 I0.9
N89270 G01 X-21.618 Z120.053
N89275 X-21.553 Z120.031
N89280 X-21.489 Z120.008
N89285 X-21.421 Z120.
N89290 X-14.007
N89295 X-13.939 Z120.008
N89300 X-13.875 Z120.031
N89305 X-13.811 Z120.053
N89310 X-13.743 Z120.061
N89315 X-6.402
N89320 G03 X-5.502 Y-25.45 J0.9
N89325 G01 Y-24.254
N89330 G03 X-6.402 Y-23.354 I-0.9
N89335 G01 X-6.47 Z120.053
N89340 X-6.534 Z120.031
N89345 X-6.598 Z120.008
N89350 X-6.666 Z120.
N89355 X-21.421
N89360 X-21.489 Z120.008
N89365 X-21.553 Z120.031
N89370 X-21.618 Z120.053
N89375 X-21.685 Z120.061
N89380 G02 X-22.585 Y-22.454 J0.9
N89385 G01 Y-21.257
N89390 G02 X-21.685 Y-20.357 I0.9
N89395 G01 X-21.618 Z120.053
N89400 X-21.553 Z120.031
N89405 X-21.489 Z120.008
N89410 X-21.421 Z120.
N89415 X0.675
N89420 X0.743 Z120.008
N89425 X0.807 Z120.031
N89430 X0.871 Z120.053
N89435 X0.939 Z120.061
N89440 X8.28
N89445 G03 X9.18 Y-19.457 J0.9
N89450 G01 Y-18.26
N89455 G03 X8.28 Y-17.36 I-0.9

(!!! BLOCKS SKIPPED HERE !!!)
(!!! PROGRAM IS ONLY FOR REVIEW !!!)

N90430 G17
N90435 M05
N90440 G28 G91 Z0.
N90445 G90
N90450 G49

(HORIZONTAL 60DEG)
N90455 M09
N90460 M01
N90465 T4 M06
N90470 T2
N90475 S5000 M03
N90480 G17 G90 G94
N90485 G69
N90490 G54
N90495 G68.2 X0. Y0. Z0. I120. J60. K-90.
N90500 G53.1
N90505 M08
N90510 G00 X10.68 Y8.838
N90515 G43 Z184.984 H04
N90520 G00 Z116.
N90525 G01 X10.672 Y8.837 Z115.879 F1000.
N90530 X10.651 Y8.834 Z115.761
N90535 X10.615 Y8.828 Z115.645
N90540 X10.566 Y8.821 Z115.535
N90545 X10.505 Y8.812 Z115.432
N90550 X10.431 Y8.801 Z115.337
N90555 X10.346 Y8.789 Z115.251
N90560 X10.252 Y8.775 Z115.177
N90565 X10.15 Y8.76 Z115.115
N90570 X10.041 Y8.744 Z115.065
N90575 X9.927 Y8.727 Z115.029
N90580 X9.81 Y8.709 Z115.007
N90585 X9.69 Y8.692 Z115.
N90590 X9.656 Y8.686
N90595 X-18.667 Y3.491
N90600 G02 X-19.837 Y4.329 I-0.18 J0.984
N90605 G03 X-22.675 Y5.382 I-1.708 J-0.252
N90610 G01 X-26.65 Y1.94
N90615 G03 Y-1.94 I1.68 J-1.94
N90620 G01 X-22.676 Y-5.381
N90625 G03 X-19.832 Y-4.307 I1.131 J1.306
N90630 X-19.53 Y0.011 I-33.019 J4.482
N90635 X-19.837 Y4.329 I-28.575 J0.141
N90640 G02 X-18.382 Y7.513 I3.182 J0.47
N90645 G03 X-17.195 Y10.806 I-1.537 J2.414
N90650 X-17.451 Y11.57 I-32.92 J-10.629
N90655 X-20.712 Y12.44 I-1.925 J-0.672
N90660 G01 X-30.168 Y4.251
N90665 G03 Y-4.251 I3.681 J-4.251
N90670 G01 X-20.714 Y-12.438
N90675 G03 X-17.443 Y-11.546 I1.336 J1.543
N90680 X-15.522 Y0.012 I-34.853 J11.734
N90685 X-17.195 Y10.806 I-34.593 J0.165
N90690 G02 X-16.259 Y14.208 I3.06 J0.988
N90695 G03 X-15.552 Y17.665 I-1.932 J2.196
N90700 X-15.823 Y18.22 I-36.518 J-17.451
N90705 X-19.396 Y18.937 I-2.064 J-1.025
N90710 G01 X-33.598 Y6.637
N90715 G03 Y-6.637 I5.748 J-6.637
N90720 G01 X-19.391 Y-18.941
N90725 G03 X-15.818 Y-18.204 I1.504 J1.737
N90730 X-11.598 Y0.009 I-38.111 J18.427
N90735 X-15.552 Y17.665 I-40.473 J0.205
N90740 G02 X-14.997 Y21.125 I2.78 J1.329
N90745 G03 X-14.7 Y24.617 I-2.016 J1.931
N90750 X-18.45 Y25.114 I-2.096 J-1.414
N90755 G01 X-37.578 Y8.549
N90760 G03 X-40.883 Y1.313 I6.266 J-7.235

(!!! BLOCKS SKIPPED HERE !!!)
(!!! PROGRAM IS ONLY FOR REVIEW !!!)

N92230 M05
N92235 G28 G91 Z0.
N92240 G90
N92245 G49

(DRILL 180DEG)
N92250 M09
N92255 M01
N92260 T2 M06
N92265 T1
N92270 S5000 M03
N92275 G17 G90 G94
N92280 G69
N92285 G54
N92290 G68.2 X0. Y0. Z0. I90. J90. K-90.
N92295 G53.1
N92300 M08
N92305 G00 X-29.214 Y0.
N92310 G43 Z116. H02
N92315 G00 Z106.
N92320 G98 G81 X-29.214 Y0. Z80. R101.419 F1000.
N92325 G80
N92330 Z116.
N92335 G28 G91 Z0.
N92340 G90

(DRILL 180DEG)
N92345 G69
N92350 G68.2 X0. Y0. Z0. I60. J90. K-90.
N92355 G53.1
N92360 G49
N92365 G00 X-29.214 Y0.
N92370 G43 Z116. H02
N92375 G00 Z106.
N92380 G81 X-29.214 Y0. Z80. R101.419 F1000.
N92385 G80
N92390 Z116.
N92395 G28 G91 Z0.
N92400 G90

(DRILL 180DEG)
N92405 G69
N92410 G68.2 X0. Y0. Z0. I30. J90. K-90.
N92415 G53.1
N92420 G49
N92425 G00 X-29.214 Y0.
N92430 G43 Z116. H02
N92435 G00 Z106.
N92440 G81 X-29.214 Y0. Z80. R101.419 F1000.
N92445 G80
N92450 Z116.
N92455 G28 G91 Z0.
N92460 G90

(DRILL 180DEG)
N92465 G69
N92470 G68.2 X0. Y0. Z0. I0. J90. K-90.
N92475 G53.1
N92480 G49
N92485 G00 X-29.214 Y0.
N92490 G43 Z116. H02
N92495 G00 Z106.
N92500 G81 X-29.214 Y0. Z80. R101.419 F1000.
N92505 G80
N92510 Z116.
N92515 G28 G91 Z0.
N92520 G90

(DRILL 180DEG)
N92525 G69
N92530 G68.2 X0. Y0. Z0. I-30. J90. K-90.
N92535 G53.1
N92540 G49
N92545 G00 X-29.214 Y0.
N92550 G43 Z116. H02
N92555 G00 Z106.
N92560 G81 X-29.214 Y0. Z80. R101.419 F1000.
N92565 G80
N92570 Z116.
N92575 G28 G91 Z0.
N92580 G90

(DRILL 180DEG)
N92585 G69
N92590 G68.2 X0. Y0. Z0. I-60. J90. K-90.
N92595 G53.1
N92600 G49
N92605 G00 X-29.214 Y0.
N92610 G43 Z116. H02
N92615 G00 Z106.
N92620 G81 X-29.214 Y0. Z80. R101.419 F1000.
N92625 G80
N92630 Z116.
N92635 G28 G91 Z0.
N92640 G90

(DRILL 180DEG)
N92645 G69
N92650 G68.2 X0. Y0. Z0. I-90. J90. K-90.
N92655 G53.1
N92660 G49
N92665 G00 X-29.214 Y0.
N92670 G43 Z116. H02
N92675 G00 Z106.
N92680 G81 X-29.214 Y0. Z80. R101.419 F1000.
N92685 G80
N92690 Z116.
N92695 G28 G91 Z0.
N92700 G90

(DRILL 180DEG)
N92705 G69
N92710 G68.2 X0. Y0. Z0. I-120. J90. K-90.
N92715 G53.1
N92720 G49
N92725 G00 X-29.214 Y0.
N92730 G43 Z116. H02
N92735 G00 Z106.
N92740 G81 X-29.214 Y0. Z80. R101.419 F1000.
N92745 G80
N92750 Z116.
N92755 G28 G91 Z0.
N92760 G90

(DRILL 180DEG)
N92765 G69
N92770 G68.2 X0. Y0. Z0. I-150. J90. K-90.
N92775 G53.1
N92780 G49
N92785 G00 X-29.214 Y0.
N92790 G43 Z116. H02
N92795 G00 Z106.
N92800 G81 X-29.214 Y0. Z80. R101.419 F1000.
N92805 G80
N92810 Z116.
N92815 G28 G91 Z0.
N92820 G90

(DRILL 180DEG)
N92825 G69
N92830 G68.2 X0. Y0. Z0. I180. J90. K-90.
N92835 G53.1
N92840 G49
N92845 G00 X-29.214 Y0.
N92850 G43 Z116. H02
N92855 G00 Z106.
N92860 G81 X-29.214 Y0. Z80. R101.419 F1000.
N92865 G80
N92870 Z116.
N92875 G28 G91 Z0.
N92880 G90

(DRILL 180DEG)
N92885 G69
N92890 G68.2 X0. Y0. Z0. I150. J90. K-90.
N92895 G53.1
N92900 G49
N92905 G00 X-29.214 Y0.
N92910 G43 Z116. H02
N92915 G00 Z106.
N92920 G81 X-29.214 Y0. Z80. R101.419 F1000.
N92925 G80
N92930 Z116.
N92935 G28 G91 Z0.
N92940 G90

(DRILL 180DEG)
N92945 G69
N92950 G68.2 X0. Y0. Z0. I120. J90. K-90.
N92955 G53.1
N92960 G49
N92965 G00 X-29.214 Y0.
N92970 G43 Z116. H02
N92975 G00 Z106.
N92980 G81 X-29.214 Y0. Z80. R101.419 F1000.
N92985 G80
N92990 Z116.

N92995 M05
N93000 M09
N93005 G28 G91 Z0.
N93010 G90
N93015 G49
N93020 G69
N93025 G68.2 X0. Y0. Z0. I0. J0. K0.
N93030 G53.1
N93035 G28 G91 X0. Y0.
N93040 G90
N93045 M30
%
